ix/location-cross_outline.svg

<svg viewBox="0 0 24 24" fill="none" xmlns="http://www.w3.org/2000/svg" height="1em" width="1em">
  <path d="M11.9997 22.76C10.5197 22.76 9.02969 22.2 7.86969 21.09C4.91969 18.25 1.65969 13.72 2.88969 8.33C3.99969 3.44 8.26969 1.25 11.9997 1.25C11.9997 1.25 11.9997 1.25 12.0097 1.25C15.7397 1.25 20.0097 3.44 21.1197 8.34C22.3397 13.73 19.0797 18.25 16.1297 21.09C14.9697 22.2 13.4797 22.76 11.9997 22.76ZM11.9997 2.75C9.08969 2.75 5.34969 4.3 4.35969 8.66C3.27969 13.37 6.23969 17.43 8.91969 20C10.6497 21.67 13.3597 21.67 15.0897 20C17.7597 17.43 20.7197 13.37 19.6597 8.66C18.6597 4.3 14.9097 2.75 11.9997 2.75Z" fill="#292D32"/>
  <path d="M14.0005 13.7099C13.8105 13.7099 13.6205 13.6399 13.4705 13.4899L9.51047 9.52994C9.22047 9.23994 9.22047 8.75994 9.51047 8.46994C9.80047 8.17994 10.2805 8.17994 10.5705 8.46994L14.5305 12.4299C14.8205 12.7199 14.8205 13.1999 14.5305 13.4899C14.3805 13.6299 14.1905 13.7099 14.0005 13.7099Z" fill="#292D32"/>
  <path d="M9.99945 13.75C9.80945 13.75 9.61945 13.68 9.46945 13.53C9.17945 13.24 9.17945 12.76 9.46945 12.47L13.4295 8.50998C13.7195 8.21998 14.1995 8.21998 14.4895 8.50998C14.7795 8.79998 14.7795 9.27998 14.4895 9.56998L10.5295 13.53C10.3795 13.68 10.1895 13.75 9.99945 13.75Z" fill="#292D32"/>
</svg>

<svg viewBox="0 0 24 24" fill="none" xmlns="http://www.w3.org/2000/svg" height="1em" width="1em">
  <path d="M12 22.76a5.97 5.97 0 0 1-4.13-1.67c-2.95-2.84-6.21-7.37-4.98-12.76C4 3.44 8.27 1.25 12 1.25h.01c3.73 0 8 2.19 9.11 7.09 1.22 5.39-2.04 9.91-4.99 12.75A5.97 5.97 0 0 1 12 22.76Zm0-20.01c-2.91 0-6.65 1.55-7.64 5.91C3.28 13.37 6.24 17.43 8.92 20a4.426 4.426 0 0 0 6.17 0c2.67-2.57 5.63-6.63 4.57-11.34-1-4.36-4.75-5.91-7.66-5.91Z" fill="#292D32"/>
  <path d="M14 13.71c-.19 0-.38-.07-.53-.22L9.51 9.53a.754.754 0 0 1 0-1.06c.29-.29.77-.29 1.06 0l3.96 3.96c.29.29.29.77 0 1.06-.15.14-.34.22-.53.22Z" fill="#292D32"/>
  <path d="M10 13.75c-.19 0-.38-.07-.53-.22a.754.754 0 0 1 0-1.06l3.96-3.96c.29-.29.77-.29 1.06 0 .29.29.29.77 0 1.06l-3.96 3.96c-.15.15-.34.22-.53.22Z" fill="#292D32"/>
</svg>
